icons/gmail.svg

<svg
  xmlns="http://www.w3.org/2000/svg"
  width="24"
  height="24"
  viewBox="0 0 24 24"
  fill="none"
  stroke="currentColor"
  stroke-width="2"
  stroke-linecap="round"
  stroke-linejoin="round"
>
  <path d="M7.955 19.863a1 1 0 0 1-1 1H4.136A1.636 1.636 0 0 1 2.5 19.226V5.317C2.5 3.5 4 2 7 4l4.986 4.358a1 1 0 0 0 1.004.014l5-4.592c2.472-1.763 3.51-.28 3.465 1.947v13.909c0 .904-.5 1.634-1.636 1.636H17a1 1 0 0 1-1-1v-7.37a.5.5 0 0 0-.765-.424l-2.666 1.666a1 1 0 0 1-1.114-.036L8.747 12.16a.5.5 0 0 0-.792.406z" />
</svg>

<svg
  xmlns="http://www.w3.org/2000/svg"
  width="24"
  height="24"
  viewBox="0 0 24 24"
  fill="none"
  stroke="currentColor"
  stroke-width="2"
  stroke-linecap="round"
  stroke-linejoin="round"
>
  <path d="M 11.455 14.108 L 8.747 12.16" />
  <path d="M 11.486 6.858 A1 1 0 0 0 12.49 6.872" />
  <path d="M 12.49 6.872 L 17.99 3.78" />
  <path d="M 12.569 14.144 A1 1 0 0 1 11.455 14.108" />
  <path d="M 15.235 12.478 L 12.569 14.144" />
  <path d="M 16 12.902 A0.5 0.5 0 0 0 15.235 12.478" />
  <path d="M 16 20.272 L 16 12.902" />
  <path d="M 17 21.272 A1 1 0 0 1 16 20.272" />
  <path d="M 17.99 3.78 C20.462 2.017 21.5 3.5 21.455 5.727" />
  <path d="M 19.819 21.272 L 17 21.272" />
  <path d="M 2.5 19.226 L 2.5 5.317" />
  <path d="M 2.5 5.317 C2.5 3.5 4 2 7 4" />
  <path d="M 21.455 19.636 C21.455 20.54 20.955 21.27 19.819 21.272" />
  <path d="M 21.455 5.727 L 21.455 19.636" />
  <path d="M 4.136 20.863 A1.636 1.636 0 0 1 2.5 19.226" />
  <path d="M 6.955 20.863 L 4.136 20.863" />
  <path d="M 7 4 L 11.486 6.858" />
  <path d="M 7.955 12.566 L 7.955 19.863" />
  <path d="M 7.955 19.863 A1 1 0 0 1 6.955 20.863" />
  <path d="M 8.747 12.16 A0.5 0.5 0 0 0 7.955 12.566" />
</svg>
